Newaita-dark/apps/48/manjaro-welcome.svg

<svg height="48pt" viewBox="0 0 48 48" width="48pt" xmlns="http://www.w3.org/2000/svg" xmlns:xlink="http://www.w3.org/1999/xlink"><linearGradient id="a"><stop offset="0" stop-opacity=".27451"/><stop offset="1" stop-opacity="0"/></linearGradient><linearGradient id="b" gradientTransform="matrix(.00781325 0 0 .093759 34.729875 20.158178)" gradientUnits="userSpaceOnUse" x1="254" x2="254" xlink:href="#a" y1="233.5" y2="254.666672"/><linearGradient id="c"><stop offset="0" stop-opacity=".313725"/><stop offset=".222222" stop-opacity=".27451"/><stop offset="1" stop-opacity="0"/></linearGradient><radialGradient id="d" cx="450.908936" cy="189.579361" gradientTransform="matrix(.00000026 -.117199 -.210958 -.00000015 77.203688 95.392999)" gradientUnits="userSpaceOnUse" r="21.166656" xlink:href="#c"/><radialGradient id="e" cx="450.908936" cy="189.579361" gradientTransform="matrix(-.00000026 .117199 .210958 .00000015 -3.774805 -11.29122)" gradientUnits="userSpaceOnUse" r="21.166656" xlink:href="#c"/><radialGradient id="f" cx="450.908936" cy="189.579361" gradientTransform="matrix(-.00000026 -.117199 .210958 -.00000015 -3.774805 95.392999)" gradientUnits="userSpaceOnUse" r="21.166656" xlink:href="#c"/><radialGradient id="g" cx="450.908936" cy="189.579361" gradientTransform="matrix(.00000026 .117199 -.210958 .00000015 77.203685 -11.291219)" gradientUnits="userSpaceOnUse" r="21.166656" xlink:href="#c"/><linearGradient id="h" gradientTransform="matrix(.00781325 0 0 .093759 8.93054 20.158178)" gradientUnits="userSpaceOnUse" x1="254" x2="254" xlink:href="#a" y1="233.5" y2="254.666672"/><radialGradient id="i" cx="450.908936" cy="189.579361" gradientTransform="matrix(.00000026 -.117199 -.210958 -.00000015 51.404353 95.392999)" gradientUnits="userSpaceOnUse" r="21.166656" xlink:href="#c"/><radialGradient id="j" cx="450.908936" cy="189.579361" gradientTransform="matrix(-.00000026 .117199 .210958 .00000015 -29.57414 -11.29122)" gradientUnits="userSpaceOnUse" r="21.166656" xlink:href="#c"/><radialGradient id="k" cx="450.908936" cy="189.579361" gradientTransform="matrix(-.00000026 -.117199 .210958 -.00000015 -29.57414 95.392999)" gradientUnits="userSpaceOnUse" r="21.166656" xlink:href="#c"/><radialGradient id="l" cx="450.908936" cy="189.579361" gradientTransform="matrix(.00000026 .117199 -.210958 .00000015 51.40435 -11.291219)" gradientUnits="userSpaceOnUse" r="21.166656" xlink:href="#c"/><linearGradient id="m" gradientTransform="matrix(.00781325 0 0 .093759 21.830213 20.158178)" gradientUnits="userSpaceOnUse" x1="254" x2="254" xlink:href="#a" y1="233.5" y2="254.666672"/><radialGradient id="n" cx="450.908936" cy="189.579361" gradientTransform="matrix(.00000026 -.117199 -.210958 -.00000015 64.304026 95.392999)" gradientUnits="userSpaceOnUse" r="21.166656" xlink:href="#c"/><radialGradient id="o" cx="450.908936" cy="189.579361" gradientTransform="matrix(-.00000026 .117199 .210958 .00000015 -16.674467 -11.29122)" gradientUnits="userSpaceOnUse" r="21.166656" xlink:href="#c"/><radialGradient id="p" cx="450.908936" cy="189.579361" gradientTransform="matrix(-.00000026 -.117199 .210958 -.00000015 -16.674467 95.392999)" gradientUnits="userSpaceOnUse" r="21.166656" xlink:href="#c"/><radialGradient id="q" cx="450.908936" cy="189.579361" gradientTransform="matrix(.00000026 .117199 -.210958 .00000015 64.304023 -11.291219)" gradientUnits="userSpaceOnUse" r="21.166656" xlink:href="#c"/><linearGradient id="r" gradientUnits="userSpaceOnUse" x1="23.814816" x2="23.814816" y1="42.05096580616" y2="4.34417306195"><stop offset="0" stop-color="#26a69a"/><stop offset="1" stop-color="#4db6ac"/></linearGradient><path d="m35.722656 42.050781h1.984375v1.984375h-1.984375zm0 0" fill="url(#b)"/><path d="m37.707031 42.050781h3.96875v-1.984375h-3.96875zm0 0" fill="url(#d)"/><path d="m35.722656 42.050781h-3.96875v1.984375h3.96875zm0 0" fill="url(#e)"/><path d="m35.722656 42.050781h-3.96875v-1.984375h3.96875zm0 0" fill="url(#f)"/><path d="m37.707031 42.050781h3.96875v1.984375h-3.96875zm0 0" fill="url(#g)"/><path d="m9.921875 42.050781h1.984375v1.984375h-1.984375zm0 0" fill="url(#h)"/><path d="m11.90625 42.050781h3.96875v-1.984375h-3.96875zm0 0" fill="url(#i)"/><path d="m9.921875 42.050781h-3.96875v1.984375h3.96875zm0 0" fill="url(#j)"/><path d="m9.921875 42.050781h-3.96875v-1.984375h3.96875zm0 0" fill="url(#k)"/><path d="m11.90625 42.050781h3.96875v1.984375h-3.96875zm0 0" fill="url(#l)"/><path d="m22.824219 42.050781h1.984375v1.984375h-1.984375zm0 0" fill="url(#m)"/><path d="m24.808594 42.050781h3.96875v-1.984375h-3.96875zm0 0" fill="url(#n)"/><path d="m22.824219 42.050781h-3.972657v1.984375h3.972657zm0 0" fill="url(#o)"/><path d="m22.824219 42.050781h-3.972657v-1.984375h3.972657zm0 0" fill="url(#p)"/><path d="m24.808594 42.050781h3.96875v1.984375h-3.96875zm0 0" fill="url(#q)"/><path d="m7.9375 4.34375c-1.0625 0-1.929688.832031-1.980469 1.882812-.003906.035157-.003906.066407-.003906.101563v12.898437h9.921875v-4.960937h12.902344v-9.921875zm23.816406 0v35.722656c0 1.097656.882813 1.984375 1.984375 1.984375h5.953125c1.097656 0 1.984375-.886719 1.984375-1.984375v-33.738281c0-1.097656-.886719-1.984375-1.984375-1.984375zm-12.902344 12.898438v22.824218c0 1.097656.886719 1.984375 1.988282 1.984375h5.953125c1.097656 0 1.984375-.886719 1.984375-1.984375v-22.824218zm-12.898437 4.964843v17.859375c0 1.097656.886719 1.984375 1.984375 1.984375h5.953125c1.101563 0 1.984375-.886719 1.984375-1.984375v-17.859375zm0 0" fill="url(#r)"/><path d="m7.9375 4.34375c-1.0625 0-1.929688.832031-1.980469 1.882812-.003906.035157-.003906.066407-.003906.101563v.746094c0-.035157 0-.070313.003906-.105469.050781-1.050781.917969-1.878906 1.980469-1.878906h20.839844v-.746094zm23.816406 0v.746094h7.9375c1.097656 0 1.984375.882812 1.984375 1.984375v-.746094c0-1.097656-.886719-1.984375-1.984375-1.984375zm-12.902344 12.898438v.746093h9.925782v-.746093zm-12.898437 4.964843v.742188h9.921875v-.742188zm0 0" fill="#fff" fill-opacity=".392157"/><path d="m15.875 13.527344v.738281h12.902344v-.738281zm-9.921875 4.960937v.738281h9.921875v-.738281zm0 20.839844v.738281c0 1.097656.886719 1.984375 1.984375 1.984375h5.953125c1.101563 0 1.984375-.886719 1.984375-1.984375v-.738281c0 1.097656-.882812 1.984375-1.984375 1.984375h-5.953125c-1.097656 0-1.984375-.886719-1.984375-1.984375zm12.898437 0v.738281c0 1.097656.886719 1.984375 1.988282 1.984375h5.953125c1.097656 0 1.984375-.886719 1.984375-1.984375v-.738281c0 1.097656-.886719 1.984375-1.984375 1.984375h-5.953125c-1.101563 0-1.988282-.886719-1.988282-1.984375zm12.902344 0v.738281c0 1.097656.882813 1.984375 1.984375 1.984375h5.953125c1.097656 0 1.984375-.886719 1.984375-1.984375v-.738281c0 1.097656-.886719 1.984375-1.984375 1.984375h-5.953125c-1.101562 0-1.984375-.886719-1.984375-1.984375zm0 0" fill-opacity=".235294"/><path d="m7.9375 4.203125c-1.136719 0-2.066406.890625-2.121094 2.015625v.007812c-.003906.035157-.003906.066407-.003906.101563v12.898437c0 .078126.0625.140626.140625.140626h9.921875c.078125 0 .140625-.0625.140625-.140626v-4.820312h12.761719c.078125 0 .140625-.0625.140625-.140625v-9.921875c0-.078125-.0625-.140625-.140625-.140625zm23.816406 0c-.078125 0-.140625.0625-.140625.140625v35.722656c0 1.175782.949219 2.125 2.125 2.125h5.953125c1.175782 0 2.125-.949218 2.125-2.125v-33.738281c0-1.175781-.949218-2.125-2.125-2.125zm-23.816406.28125h20.699219v9.640625h-12.761719c-.074219 0-.140625.0625-.140625.140625v4.820313h-9.640625v-12.757813c0-.03125 0-.0625.003906-.09375.046875-.980469.847656-1.75 1.839844-1.75zm23.957031 0h7.796875c1.023438 0 1.84375.820313 1.84375 1.84375v33.738281c0 1.023438-.820312 1.84375-1.84375 1.84375h-5.953125c-1.023437 0-1.84375-.820312-1.84375-1.84375zm-13.042969 12.617187c-.074218 0-.140624.066407-.140624.140626v22.824218c0 1.175782.953124 2.125 2.128906 2.125h5.953125c1.171875 0 2.125-.949218 2.125-2.125v-22.824218c0-.074219-.0625-.140626-.140625-.140626zm.140626.28125h9.644531v22.683594c0 1.023438-.820313 1.84375-1.84375 1.84375h-5.953125c-1.027344 0-1.847656-.820312-1.847656-1.84375zm-13.039063 4.683594c-.078125 0-.140625.0625-.140625.140625v17.859375c0 1.175782.949219 2.125 2.125 2.125h5.953125c1.175781 0 2.125-.949218 2.125-2.125v-17.859375c0-.078125-.0625-.140625-.140625-.140625zm.140625.28125h9.640625v17.71875c0 1.023438-.820313 1.84375-1.84375 1.84375h-5.953125c-1.023438 0-1.84375-.820312-1.84375-1.84375zm0 0" fill="#212121"/></svg>

<?xml version="1.0" encoding="UTF-8"?>
<svg xmlns="http://www.w3.org/2000/svg" xmlns:xlink="http://www.w3.org/1999/xlink" width="48pt" height="48pt" viewBox="0 0 48 48" version="1.1">
<defs>
<linearGradient id="linear0" gradientUnits="userSpaceOnUse" x1="254" y1="233.5" x2="254" y2="254.666672" gradientTransform="matrix(0.00781325,0,0,0.093759,34.729875,20.158178)">
<stop offset="0" style="stop-color:rgb(0%,0%,0%);stop-opacity:0.27451;"/>
<stop offset="1" style="stop-color:rgb(0%,0%,0%);stop-opacity:0;"/>
</linearGradient>
<radialGradient id="radial0" gradientUnits="userSpaceOnUse" cx="450.908936" cy="189.579361" fx="450.908936" fy="189.579361" r="21.166656" gradientTransform="matrix(0.000000261256,-0.117199,-0.210958,-0.000000152308,77.203688,95.392999)">
<stop offset="0" style="stop-color:rgb(0%,0%,0%);stop-opacity:0.313725;"/>
<stop offset="0.222222" style="stop-color:rgb(0%,0%,0%);stop-opacity:0.27451;"/>
<stop offset="1" style="stop-color:rgb(0%,0%,0%);stop-opacity:0;"/>
</radialGradient>
<radialGradient id="radial1" gradientUnits="userSpaceOnUse" cx="450.908936" cy="189.579361" fx="450.908936" fy="189.579361" r="21.166656" gradientTransform="matrix(-0.000000261256,0.117199,0.210958,0.000000152308,-3.774805,-11.29122)">
<stop offset="0" style="stop-color:rgb(0%,0%,0%);stop-opacity:0.313725;"/>
<stop offset="0.222222" style="stop-color:rgb(0%,0%,0%);stop-opacity:0.27451;"/>
<stop offset="1" style="stop-color:rgb(0%,0%,0%);stop-opacity:0;"/>
</radialGradient>
<radialGradient id="radial2" gradientUnits="userSpaceOnUse" cx="450.908936" cy="189.579361" fx="450.908936" fy="189.579361" r="21.166656" gradientTransform="matrix(-0.000000261256,-0.117199,0.210958,-0.000000152308,-3.774805,95.392999)">
<stop offset="0" style="stop-color:rgb(0%,0%,0%);stop-opacity:0.313725;"/>
<stop offset="0.222222" style="stop-color:rgb(0%,0%,0%);stop-opacity:0.27451;"/>
<stop offset="1" style="stop-color:rgb(0%,0%,0%);stop-opacity:0;"/>
</radialGradient>
<radialGradient id="radial3" gradientUnits="userSpaceOnUse" cx="450.908936" cy="189.579361" fx="450.908936" fy="189.579361" r="21.166656" gradientTransform="matrix(0.000000261256,0.117199,-0.210958,0.000000152308,77.203685,-11.291219)">
<stop offset="0" style="stop-color:rgb(0%,0%,0%);stop-opacity:0.313725;"/>
<stop offset="0.222222" style="stop-color:rgb(0%,0%,0%);stop-opacity:0.27451;"/>
<stop offset="1" style="stop-color:rgb(0%,0%,0%);stop-opacity:0;"/>
</radialGradient>
<linearGradient id="linear1" gradientUnits="userSpaceOnUse" x1="254" y1="233.5" x2="254" y2="254.666672" gradientTransform="matrix(0.00781325,0,0,0.093759,8.93054,20.158178)">
<stop offset="0" style="stop-color:rgb(0%,0%,0%);stop-opacity:0.27451;"/>
<stop offset="1" style="stop-color:rgb(0%,0%,0%);stop-opacity:0;"/>
</linearGradient>
<radialGradient id="radial4" gradientUnits="userSpaceOnUse" cx="450.908936" cy="189.579361" fx="450.908936" fy="189.579361" r="21.166656" gradientTransform="matrix(0.000000261256,-0.117199,-0.210958,-0.000000152308,51.404353,95.392999)">
<stop offset="0" style="stop-color:rgb(0%,0%,0%);stop-opacity:0.313725;"/>
<stop offset="0.222222" style="stop-color:rgb(0%,0%,0%);stop-opacity:0.27451;"/>
<stop offset="1" style="stop-color:rgb(0%,0%,0%);stop-opacity:0;"/>
</radialGradient>
<radialGradient id="radial5" gradientUnits="userSpaceOnUse" cx="450.908936" cy="189.579361" fx="450.908936" fy="189.579361" r="21.166656" gradientTransform="matrix(-0.000000261256,0.117199,0.210958,0.000000152308,-29.57414,-11.29122)">
<stop offset="0" style="stop-color:rgb(0%,0%,0%);stop-opacity:0.313725;"/>
<stop offset="0.222222" style="stop-color:rgb(0%,0%,0%);stop-opacity:0.27451;"/>
<stop offset="1" style="stop-color:rgb(0%,0%,0%);stop-opacity:0;"/>
</radialGradient>
<radialGradient id="radial6" gradientUnits="userSpaceOnUse" cx="450.908936" cy="189.579361" fx="450.908936" fy="189.579361" r="21.166656" gradientTransform="matrix(-0.000000261256,-0.117199,0.210958,-0.000000152308,-29.57414,95.392999)">
<stop offset="0" style="stop-color:rgb(0%,0%,0%);stop-opacity:0.313725;"/>
<stop offset="0.222222" style="stop-color:rgb(0%,0%,0%);stop-opacity:0.27451;"/>
<stop offset="1" style="stop-color:rgb(0%,0%,0%);stop-opacity:0;"/>
</radialGradient>
<radialGradient id="radial7" gradientUnits="userSpaceOnUse" cx="450.908936" cy="189.579361" fx="450.908936" fy="189.579361" r="21.166656" gradientTransform="matrix(0.000000261256,0.117199,-0.210958,0.000000152308,51.40435,-11.291219)">
<stop offset="0" style="stop-color:rgb(0%,0%,0%);stop-opacity:0.313725;"/>
<stop offset="0.222222" style="stop-color:rgb(0%,0%,0%);stop-opacity:0.27451;"/>
<stop offset="1" style="stop-color:rgb(0%,0%,0%);stop-opacity:0;"/>
</radialGradient>
<linearGradient id="linear2" gradientUnits="userSpaceOnUse" x1="254" y1="233.5" x2="254" y2="254.666672" gradientTransform="matrix(0.00781325,0,0,0.093759,21.830213,20.158178)">
<stop offset="0" style="stop-color:rgb(0%,0%,0%);stop-opacity:0.27451;"/>
<stop offset="1" style="stop-color:rgb(0%,0%,0%);stop-opacity:0;"/>
</linearGradient>
<radialGradient id="radial8" gradientUnits="userSpaceOnUse" cx="450.908936" cy="189.579361" fx="450.908936" fy="189.579361" r="21.166656" gradientTransform="matrix(0.000000261256,-0.117199,-0.210958,-0.000000152308,64.304026,95.392999)">
<stop offset="0" style="stop-color:rgb(0%,0%,0%);stop-opacity:0.313725;"/>
<stop offset="0.222222" style="stop-color:rgb(0%,0%,0%);stop-opacity:0.27451;"/>
<stop offset="1" style="stop-color:rgb(0%,0%,0%);stop-opacity:0;"/>
</radialGradient>
<radialGradient id="radial9" gradientUnits="userSpaceOnUse" cx="450.908936" cy="189.579361" fx="450.908936" fy="189.579361" r="21.166656" gradientTransform="matrix(-0.000000261256,0.117199,0.210958,0.000000152308,-16.674467,-11.29122)">
<stop offset="0" style="stop-color:rgb(0%,0%,0%);stop-opacity:0.313725;"/>
<stop offset="0.222222" style="stop-color:rgb(0%,0%,0%);stop-opacity:0.27451;"/>
<stop offset="1" style="stop-color:rgb(0%,0%,0%);stop-opacity:0;"/>
</radialGradient>
<radialGradient id="radial10" gradientUnits="userSpaceOnUse" cx="450.908936" cy="189.579361" fx="450.908936" fy="189.579361" r="21.166656" gradientTransform="matrix(-0.000000261256,-0.117199,0.210958,-0.000000152308,-16.674467,95.392999)">
<stop offset="0" style="stop-color:rgb(0%,0%,0%);stop-opacity:0.313725;"/>
<stop offset="0.222222" style="stop-color:rgb(0%,0%,0%);stop-opacity:0.27451;"/>
<stop offset="1" style="stop-color:rgb(0%,0%,0%);stop-opacity:0;"/>
</radialGradient>
<radialGradient id="radial11" gradientUnits="userSpaceOnUse" cx="450.908936" cy="189.579361" fx="450.908936" fy="189.579361" r="21.166656" gradientTransform="matrix(0.000000261256,0.117199,-0.210958,0.000000152308,64.304023,-11.291219)">
<stop offset="0" style="stop-color:rgb(0%,0%,0%);stop-opacity:0.313725;"/>
<stop offset="0.222222" style="stop-color:rgb(0%,0%,0%);stop-opacity:0.27451;"/>
<stop offset="1" style="stop-color:rgb(0%,0%,0%);stop-opacity:0;"/>
</radialGradient>
<linearGradient id="linear3" gradientUnits="userSpaceOnUse" x1="960" y1="1695.118164" x2="960" y2="175.118134" gradientTransform="matrix(0.0248071,0,0,0.0248071,0,0)">
<stop offset="0" style="stop-color:rgb(14.901961%,65.098039%,60.392157%);stop-opacity:1;"/>
<stop offset="1" style="stop-color:rgb(30.196078%,71.372549%,67.45098%);stop-opacity:1;"/>
</linearGradient>
</defs>
<g id="surface1">
<path style=" stroke:none;fill-rule:nonzero;fill:url(#linear0);" d="M 35.722656 42.050781 L 37.707031 42.050781 L 37.707031 44.035156 L 35.722656 44.035156 Z M 35.722656 42.050781 "/>
<path style=" stroke:none;fill-rule:nonzero;fill:url(#radial0);" d="M 37.707031 42.050781 L 41.675781 42.050781 L 41.675781 40.066406 L 37.707031 40.066406 Z M 37.707031 42.050781 "/>
<path style=" stroke:none;fill-rule:nonzero;fill:url(#radial1);" d="M 35.722656 42.050781 L 31.753906 42.050781 L 31.753906 44.035156 L 35.722656 44.035156 Z M 35.722656 42.050781 "/>
<path style=" stroke:none;fill-rule:nonzero;fill:url(#radial2);" d="M 35.722656 42.050781 L 31.753906 42.050781 L 31.753906 40.066406 L 35.722656 40.066406 Z M 35.722656 42.050781 "/>
<path style=" stroke:none;fill-rule:nonzero;fill:url(#radial3);" d="M 37.707031 42.050781 L 41.675781 42.050781 L 41.675781 44.035156 L 37.707031 44.035156 Z M 37.707031 42.050781 "/>
<path style=" stroke:none;fill-rule:nonzero;fill:url(#linear1);" d="M 9.921875 42.050781 L 11.90625 42.050781 L 11.90625 44.035156 L 9.921875 44.035156 Z M 9.921875 42.050781 "/>
<path style=" stroke:none;fill-rule:nonzero;fill:url(#radial4);" d="M 11.90625 42.050781 L 15.875 42.050781 L 15.875 40.066406 L 11.90625 40.066406 Z M 11.90625 42.050781 "/>
<path style=" stroke:none;fill-rule:nonzero;fill:url(#radial5);" d="M 9.921875 42.050781 L 5.953125 42.050781 L 5.953125 44.035156 L 9.921875 44.035156 Z M 9.921875 42.050781 "/>
<path style=" stroke:none;fill-rule:nonzero;fill:url(#radial6);" d="M 9.921875 42.050781 L 5.953125 42.050781 L 5.953125 40.066406 L 9.921875 40.066406 Z M 9.921875 42.050781 "/>
<path style=" stroke:none;fill-rule:nonzero;fill:url(#radial7);" d="M 11.90625 42.050781 L 15.875 42.050781 L 15.875 44.035156 L 11.90625 44.035156 Z M 11.90625 42.050781 "/>
<path style=" stroke:none;fill-rule:nonzero;fill:url(#linear2);" d="M 22.824219 42.050781 L 24.808594 42.050781 L 24.808594 44.035156 L 22.824219 44.035156 Z M 22.824219 42.050781 "/>
<path style=" stroke:none;fill-rule:nonzero;fill:url(#radial8);" d="M 24.808594 42.050781 L 28.777344 42.050781 L 28.777344 40.066406 L 24.808594 40.066406 Z M 24.808594 42.050781 "/>
<path style=" stroke:none;fill-rule:nonzero;fill:url(#radial9);" d="M 22.824219 42.050781 L 18.851562 42.050781 L 18.851562 44.035156 L 22.824219 44.035156 Z M 22.824219 42.050781 "/>
<path style=" stroke:none;fill-rule:nonzero;fill:url(#radial10);" d="M 22.824219 42.050781 L 18.851562 42.050781 L 18.851562 40.066406 L 22.824219 40.066406 Z M 22.824219 42.050781 "/>
<path style=" stroke:none;fill-rule:nonzero;fill:url(#radial11);" d="M 24.808594 42.050781 L 28.777344 42.050781 L 28.777344 44.035156 L 24.808594 44.035156 Z M 24.808594 42.050781 "/>
<path style=" stroke:none;fill-rule:nonzero;fill:url(#linear3);" d="M 7.9375 4.34375 C 6.875 4.34375 6.007812 5.175781 5.957031 6.226562 C 5.953125 6.261719 5.953125 6.292969 5.953125 6.328125 L 5.953125 19.226562 L 15.875 19.226562 L 15.875 14.265625 L 28.777344 14.265625 L 28.777344 4.34375 Z M 31.753906 4.34375 L 31.753906 40.066406 C 31.753906 41.164062 32.636719 42.050781 33.738281 42.050781 L 39.691406 42.050781 C 40.789062 42.050781 41.675781 41.164062 41.675781 40.066406 L 41.675781 6.328125 C 41.675781 5.230469 40.789062 4.34375 39.691406 4.34375 Z M 18.851562 17.242188 L 18.851562 40.066406 C 18.851562 41.164062 19.738281 42.050781 20.839844 42.050781 L 26.792969 42.050781 C 27.890625 42.050781 28.777344 41.164062 28.777344 40.066406 L 28.777344 17.242188 Z M 5.953125 22.207031 L 5.953125 40.066406 C 5.953125 41.164062 6.839844 42.050781 7.9375 42.050781 L 13.890625 42.050781 C 14.992188 42.050781 15.875 41.164062 15.875 40.066406 L 15.875 22.207031 Z M 5.953125 22.207031 "/>
<path style=" stroke:none;fill-rule:nonzero;fill:rgb(100%,100%,100%);fill-opacity:0.392157;" d="M 7.9375 4.34375 C 6.875 4.34375 6.007812 5.175781 5.957031 6.226562 C 5.953125 6.261719 5.953125 6.292969 5.953125 6.328125 L 5.953125 7.074219 C 5.953125 7.039062 5.953125 7.003906 5.957031 6.96875 C 6.007812 5.917969 6.875 5.089844 7.9375 5.089844 L 28.777344 5.089844 L 28.777344 4.34375 Z M 31.753906 4.34375 L 31.753906 5.089844 L 39.691406 5.089844 C 40.789062 5.089844 41.675781 5.972656 41.675781 7.074219 L 41.675781 6.328125 C 41.675781 5.230469 40.789062 4.34375 39.691406 4.34375 Z M 18.851562 17.242188 L 18.851562 17.988281 L 28.777344 17.988281 L 28.777344 17.242188 Z M 5.953125 22.207031 L 5.953125 22.949219 L 15.875 22.949219 L 15.875 22.207031 Z M 5.953125 22.207031 "/>
<path style=" stroke:none;fill-rule:nonzero;fill:rgb(0%,0%,0%);fill-opacity:0.235294;" d="M 15.875 13.527344 L 15.875 14.265625 L 28.777344 14.265625 L 28.777344 13.527344 Z M 5.953125 18.488281 L 5.953125 19.226562 L 15.875 19.226562 L 15.875 18.488281 Z M 5.953125 39.328125 L 5.953125 40.066406 C 5.953125 41.164062 6.839844 42.050781 7.9375 42.050781 L 13.890625 42.050781 C 14.992188 42.050781 15.875 41.164062 15.875 40.066406 L 15.875 39.328125 C 15.875 40.425781 14.992188 41.3125 13.890625 41.3125 L 7.9375 41.3125 C 6.839844 41.3125 5.953125 40.425781 5.953125 39.328125 Z M 18.851562 39.328125 L 18.851562 40.066406 C 18.851562 41.164062 19.738281 42.050781 20.839844 42.050781 L 26.792969 42.050781 C 27.890625 42.050781 28.777344 41.164062 28.777344 40.066406 L 28.777344 39.328125 C 28.777344 40.425781 27.890625 41.3125 26.792969 41.3125 L 20.839844 41.3125 C 19.738281 41.3125 18.851562 40.425781 18.851562 39.328125 Z M 31.753906 39.328125 L 31.753906 40.066406 C 31.753906 41.164062 32.636719 42.050781 33.738281 42.050781 L 39.691406 42.050781 C 40.789062 42.050781 41.675781 41.164062 41.675781 40.066406 L 41.675781 39.328125 C 41.675781 40.425781 40.789062 41.3125 39.691406 41.3125 L 33.738281 41.3125 C 32.636719 41.3125 31.753906 40.425781 31.753906 39.328125 Z M 31.753906 39.328125 "/>
<path style=" stroke:none;fill-rule:nonzero;fill:rgb(12.941177%,12.941177%,12.941177%);fill-opacity:1;" d="M 7.9375 4.203125 C 6.800781 4.203125 5.871094 5.09375 5.816406 6.21875 L 5.816406 6.226562 C 5.8125 6.261719 5.8125 6.292969 5.8125 6.328125 L 5.8125 19.226562 C 5.8125 19.304688 5.875 19.367188 5.953125 19.367188 L 15.875 19.367188 C 15.953125 19.367188 16.015625 19.304688 16.015625 19.226562 L 16.015625 14.40625 L 28.777344 14.40625 C 28.855469 14.40625 28.917969 14.34375 28.917969 14.265625 L 28.917969 4.34375 C 28.917969 4.265625 28.855469 4.203125 28.777344 4.203125 Z M 31.753906 4.203125 C 31.675781 4.203125 31.613281 4.265625 31.613281 4.34375 L 31.613281 40.066406 C 31.613281 41.242188 32.5625 42.191406 33.738281 42.191406 L 39.691406 42.191406 C 40.867188 42.191406 41.816406 41.242188 41.816406 40.066406 L 41.816406 6.328125 C 41.816406 5.152344 40.867188 4.203125 39.691406 4.203125 Z M 7.9375 4.484375 L 28.636719 4.484375 L 28.636719 14.125 L 15.875 14.125 C 15.800781 14.125 15.734375 14.1875 15.734375 14.265625 L 15.734375 19.085938 L 6.09375 19.085938 L 6.09375 6.328125 C 6.09375 6.296875 6.09375 6.265625 6.097656 6.234375 C 6.144531 5.253906 6.945312 4.484375 7.9375 4.484375 Z M 31.894531 4.484375 L 39.691406 4.484375 C 40.714844 4.484375 41.535156 5.304688 41.535156 6.328125 L 41.535156 40.066406 C 41.535156 41.089844 40.714844 41.910156 39.691406 41.910156 L 33.738281 41.910156 C 32.714844 41.910156 31.894531 41.089844 31.894531 40.066406 Z M 18.851562 17.101562 C 18.777344 17.101562 18.710938 17.167969 18.710938 17.242188 L 18.710938 40.066406 C 18.710938 41.242188 19.664062 42.191406 20.839844 42.191406 L 26.792969 42.191406 C 27.964844 42.191406 28.917969 41.242188 28.917969 40.066406 L 28.917969 17.242188 C 28.917969 17.167969 28.855469 17.101562 28.777344 17.101562 Z M 18.992188 17.382812 L 28.636719 17.382812 L 28.636719 40.066406 C 28.636719 41.089844 27.816406 41.910156 26.792969 41.910156 L 20.839844 41.910156 C 19.8125 41.910156 18.992188 41.089844 18.992188 40.066406 Z M 5.953125 22.066406 C 5.875 22.066406 5.8125 22.128906 5.8125 22.207031 L 5.8125 40.066406 C 5.8125 41.242188 6.761719 42.191406 7.9375 42.191406 L 13.890625 42.191406 C 15.066406 42.191406 16.015625 41.242188 16.015625 40.066406 L 16.015625 22.207031 C 16.015625 22.128906 15.953125 22.066406 15.875 22.066406 Z M 6.09375 22.347656 L 15.734375 22.347656 L 15.734375 40.066406 C 15.734375 41.089844 14.914062 41.910156 13.890625 41.910156 L 7.9375 41.910156 C 6.914062 41.910156 6.09375 41.089844 6.09375 40.066406 Z M 6.09375 22.347656 "/>
</g>
</svg>
